svg/moon-rising-twotone-loop.svg

<svg xmlns="http://www.w3.org/2000/svg" width="24" height="24" viewBox="0 0 24 24">
	<g fill="currentColor">
		<path d="M15.22 6.03l2.53-1.94L14.56 4L13.5 1l-1.06 3l-3.19.09l2.53 1.94l-.91 3.06l2.63-1.81l2.63 1.81z" fill-opacity="0">
			<animate id="loop" attributeName="fill-opacity" values="0;1" begin="0.7s;loop.begin+6s" dur="0.4s" fill="freeze" />
			<animate attributeName="fill-opacity" values="1;0" begin="loop.begin+2.2s" dur="0.4s" fill="freeze" />
		</path>
		<path d="M13.61 5.25L15.25 4l-2.06-.05L12.5 2l-.69 1.95L9.75 4l1.64 1.25l-.59 1.98l1.7-1.17l1.7 1.17z" fill-opacity="0">
			<animate attributeName="fill-opacity" values="0;1" begin="loop.begin+3s" dur="0.4s" fill="freeze" />
			<animate attributeName="fill-opacity" values="1;0" begin="loop.begin+5.2s" dur="0.4s" fill="freeze" />
		</path>
		<path d="M19.61 12.25L21.25 11l-2.06-.05L18.5 9l-.69 1.95l-2.06.05l1.64 1.25l-.59 1.98l1.7-1.17l1.7 1.17z" fill-opacity="0">
			<animate attributeName="fill-opacity" values="0;1" begin="loop.begin+0.4s" dur="0.4s" fill="freeze" />
			<animate attributeName="fill-opacity" values="1;0" begin="loop.begin+2.8s" dur="0.4s" fill="freeze" />
		</path>
		<path d="M20.828 9.731l1.876-1.439l-2.366-.067L19.552 6l-.786 2.225l-2.366.067l1.876 1.439L17.601 12l1.951-1.342L21.503 12z" fill-opacity="0">
			<animate attributeName="fill-opacity" values="0;1" begin="loop.begin+3.4s" dur="0.4s" fill="freeze" />
			<animate attributeName="fill-opacity" values="1;0" begin="loop.begin+5.6s" dur="0.4s" fill="freeze" />
		</path>
	</g>
	<path d="M7 6 C7 12.08 11.92 17 18 17 C18.53 17 19.05 16.96 19.56 16.89 C17.95 19.36 15.17 21 12 21 C7.03 21 3 16.97 3 12 C3 8.83 4.64 6.05 7.11 4.44 C7.04 4.95 7 5.47 7 6 Z" fill="currentColor" fill-opacity="0.3" stroke="currentColor" stroke-linecap="round" stroke-linejoin="round" transform="translate(0 22)">
		<animateMotion path="M0 0v-22" dur="0.6s" calcMode="linear" fill="freeze" />
	</path>
</svg>

<svg xmlns="http://www.w3.org/2000/svg" width="24" height="24" viewBox="0 0 24 24">
	<g fill="currentColor">
		<path d="M7 6c0 6.08 4.92 11 11 11c0.53 0 1.05 -0.04 1.56 -0.11c-1.61 2.47 -4.39 4.11 -7.56 4.11c-4.97 0 -9 -4.03 -9 -9c0 -3.17 1.64 -5.95 4.11 -7.56c-0.07 0.51 -0.11 1.03 -0.11 1.56Z" stroke="currentColor" stroke-width="2" stroke-linecap="round" stroke-linejoin="round" fill-opacity="0.3">
			<animate attributeName="d" dur="0.6s" fill="freeze" values="M7 28c0 6.08 4.92 11 11 11c0.53 0 1.05 -0.04 1.56 -0.11c-1.61 2.47 -4.39 4.11 -7.56 4.11c-4.97 0 -9 -4.03 -9 -9c0 -3.17 1.64 -5.95 4.11 -7.56c-0.07 0.51 -0.11 1.03 -0.11 1.56Z;M7 6c0 6.08 4.92 11 11 11c0.53 0 1.05 -0.04 1.56 -0.11c-1.61 2.47 -4.39 4.11 -7.56 4.11c-4.97 0 -9 -4.03 -9 -9c0 -3.17 1.64 -5.95 4.11 -7.56c-0.07 0.51 -0.11 1.03 -0.11 1.56Z" />
		</path>
		<path d="M15.22 6.03l2.53 -1.94l-3.19 -0.09l-1.06 -3l-1.06 3l-3.19 0.09l2.53 1.94l-0.91 3.06l2.63 -1.81l2.63 1.81l-0.91 -3.06Z" opacity="0">
			<animate attributeName="opacity" begin="0.7s" dur="6s" repeatCount="indefinite" keyTimes="0;0.1;0.4;0.5;1" values="0;1;1;0;0" />
		</path>
		<path d="M19.61 12.25l1.64 -1.25l-2.06 -0.05l-0.69 -1.95l-0.69 1.95l-2.06 0.05l1.64 1.25l-0.59 1.98l1.7 -1.17l1.7 1.17l-0.59 -1.98Z" opacity="0">
			<animate attributeName="opacity" begin="0.7s" dur="6s" repeatCount="indefinite" keyTimes="0;0.2;0.3;0.6;0.7;1" values="0;0;1;1;0;0" />
		</path>
		<path d="M13.61 5.25l1.64 -1.25l-2.06 -0.05l-0.69 -1.95l-0.69 1.95l-2.06 0.05l1.64 1.25l-0.59 1.98l1.7 -1.17l1.7 1.17Z" opacity="0">
			<animate attributeName="opacity" begin="3.7s" dur="6s" repeatCount="indefinite" keyTimes="0;0.1;0.4;0.5;1" values="0;1;1;0;0" />
		</path>
		<path d="M20.83 9.73l1.88 -1.44l-2.37 -0.07l-0.79 -2.22l-0.79 2.23l-2.37 0.07l1.88 1.44l-0.68 2.27l1.95 -1.34l1.95 1.34Z" opacity="0">
			<animate attributeName="opacity" begin="3.7s" dur="6s" repeatCount="indefinite" keyTimes="0;0.2;0.3;0.6;0.7;1" values="0;0;1;1;0;0" />
		</path>
	</g>
</svg>
